X:251
%%etbk:tnset id:76,pos:1,rep:3x,ant:
%%etbk:wsite http://www.thesession.org/tunes/display/830
%%etbk:pldat 2014-09-25T18:24,2014-03-20T18:56,2014-02-26T17:39,2014-02-18T17:21,2014-02-11T19:26,2014-02-07T16:52,2014-02-05T15:34,2013-11-25T19:53,2013-10-07T19:02,2013-05-21T15:34,2013-05-15T17:44
T: Brian O'Lynn
Z: Piano Box Version by Martin Fleischmann
H: Created 2013-02-19 /  Last Modified 2013-02-19
M: 6/8
L: 1/8
R: jig
K: Ador
|: "am"!3!c!1!Ad !3!c!1!A!2!G | !1!E!2!E!1!E !2!G!3!A!4!B | !3!cAd !3!c!1!A!2!G | !1!E!3!A!1!A !1!A2B | 
!3!ced !3!c!1!A!2!G | !1!E!2!E!1!E !2!G!3!A!4!B | !3!c!4!d!5!e "em"!5!=fed | "am"!2!c!1!AA A3:|
|: "C"!4!g!2!ea !4!ge!1!d | !3!c!1!AB !3!cd!5!e | !2!e!5!aa age | "G"!2!e!1!dd d3 | 
"C"!4!g!2!eg !4!ge!1!d | !3!c!1!AB !3!cd!5!e | "dm"!5!=fed !2!c!1!A!2!G | "am"!1!E!3!A!1!A A3:|


